src/assets/images/discover-end-left.svg

<svg width="232" height="265" viewBox="0 0 232 265" fill="none" xmlns="http://www.w3.org/2000/svg">
<path d="M178.626 250.278C177.705 250.063 176.933 249.39 176.196 248.668C175.461 247.95 174.787 247.163 174.007 246.503C172.438 245.173 171.194 245.547 170.522 247.514C170.316 248.118 170.201 248.755 170.059 249.38C169.862 250.26 169.622 251.121 169.222 251.936C168.067 254.28 165.795 254.903 163.608 253.466C162.795 252.933 162.175 252.19 161.484 251.525C160.535 250.613 159.742 249.186 158.184 249.572C156.592 249.968 156.621 251.604 156.309 252.876C156.062 253.878 155.805 254.871 155.352 255.797C154.297 257.953 152.075 258.603 150.011 257.376C149.062 256.81 148.348 255.974 147.585 255.196C146.781 254.377 146.058 253.432 144.81 253.238C144.254 253.152 144.137 252.708 144.019 252.274C143.851 251.653 144.012 251.267 144.746 251.309C145.81 251.366 146.757 251.731 147.542 252.448C148.205 253.053 148.809 253.719 149.459 254.34C149.92 254.783 150.368 255.26 150.893 255.614C152.016 256.372 152.955 256.12 153.603 254.934C153.974 254.255 154.185 253.511 154.355 252.757C154.539 251.944 154.693 251.115 154.975 250.334C156.023 247.458 158.726 246.66 161.141 248.533C161.947 249.158 162.613 249.959 163.357 250.665C164.184 251.45 164.936 252.549 166.264 252.194C167.579 251.843 167.744 250.542 168.054 249.441C168.3 248.577 168.427 247.677 168.711 246.827C169.784 243.623 172.628 242.797 175.208 244.959C176.137 245.739 176.919 246.696 177.817 247.518C179.579 249.132 180.942 248.78 181.658 246.514C181.968 245.537 182.128 244.515 182.395 243.523C182.683 242.455 183.145 241.468 184.04 240.76C184.377 240.495 184.807 240.049 185.205 240.369C185.661 240.732 185.94 241.578 185.558 241.92C183.945 243.359 184.093 245.417 183.482 247.201C182.605 249.771 180.926 250.888 178.626 250.278Z" fill="#737AB4"/>
<path d="M59.3482 4.97559C59.2619 5.10919 59.1333 5.32755 58.9853 5.53469C58.018 6.88668 57.0103 8.21176 56.094 9.5985C55.6205 10.3144 55.1925 10.357 54.5451 9.87713C53.1591 8.84885 51.7633 7.83342 50.3424 6.85057C49.7502 6.44057 49.6106 6.09051 50.0816 5.46429C51.1191 4.08581 52.1089 2.67055 53.0918 1.24963C53.5259 0.623276 53.9211 0.405046 54.6246 0.945472C55.9946 1.99611 57.4293 2.9602 58.8251 3.97564C59.1221 4.19178 59.5085 4.38713 59.3482 4.97559Z" fill="#737AB4"/>
<path d="M150.795 104.041C151.086 102.595 150.123 101.178 148.674 100.918C147.275 100.668 145.969 101.529 145.643 102.915C145.297 104.398 146.154 105.763 147.642 106.09C149.106 106.411 150.501 105.505 150.795 104.041ZM149.252 99.0585C151.792 99.6547 153.289 102.128 152.642 104.663C152.016 107.124 149.672 108.532 147.16 107.959C144.581 107.371 143.133 104.983 143.781 102.385C144.391 99.9294 146.779 98.4789 149.252 99.0585Z" fill="#737AB4"/>
<path d="M60.5531 149.63C58.9221 150.967 57.6821 152.716 56.9347 154.649C56.1854 156.585 55.8511 158.662 55.8027 160.739C55.7453 162.818 55.975 164.904 56.3637 166.958C56.5581 167.985 56.8079 169.002 57.1027 170.008C57.384 171.019 57.7325 172.011 58.1042 172.997C57.6188 172.06 57.2195 171.082 56.8516 170.091C56.5017 169.093 56.2043 168.074 55.9561 167.044C55.4653 164.982 55.2147 162.856 55.2618 160.724C55.3237 158.6 55.6852 156.451 56.5536 154.49C56.9863 153.514 57.5336 152.586 58.2048 151.758C58.8859 150.94 59.6706 150.208 60.5531 149.63Z" fill="#E3DFE9"/>
<path d="M57.7627 155.868C58.1606 153.842 58.9001 151.659 59.2897 151.623C59.6806 151.587 60.8091 153.597 61.5732 155.514C62.3817 157.549 57.3414 158.016 57.7627 155.868Z" fill="#F3B03E"/>
<path d="M78.5769 117.682C79.7172 129.967 71.725 152.09 59.4392 153.23C47.1533 154.37 35.2276 134.096 34.0889 121.811C32.9481 109.525 41.9828 98.641 54.2687 97.5021C66.5542 96.3617 77.4377 105.397 78.5769 117.682Z" fill="#F3B03E"/>
<path d="M77.1184 121.781C77.6994 132.381 69.8118 151.15 59.6285 151.709C49.4424 152.268 63.0267 145.058 62.4441 134.46C61.8605 123.86 62.7873 117.093 67.946 112.741C75.8537 106.073 76.5361 111.181 77.1184 121.781Z" fill="#ED9F34"/>
<path d="M50.598 104.693C49.8294 104.52 49.1591 103.977 48.8577 103.185C48.3794 101.93 49.0107 100.523 50.267 100.045C50.777 99.8511 51.2993 99.6712 51.8213 99.5117C53.1058 99.1158 54.4684 99.8367 54.8626 101.121C55.2582 102.406 54.5363 103.767 53.2527 104.163C52.832 104.292 52.4097 104.439 51.9981 104.594C51.533 104.771 51.0487 104.795 50.598 104.693Z" fill="#EFF2F3"/>
<path d="M39.1368 121.765C38.3139 121.579 37.6124 120.97 37.3458 120.106C35.4762 114.026 39.4256 105.957 43.9706 103.615C45.166 103 46.6331 103.471 47.2484 104.665C47.8642 105.86 47.3953 107.327 46.2004 107.943C43.5243 109.321 40.8992 115.103 41.9987 118.675C42.3929 119.959 41.673 121.32 40.3874 121.716C39.9665 121.846 39.5382 121.856 39.1368 121.765Z" fill="#EFF2F3"/>
</svg>

<svg width="232" height="265" fill="none" xmlns="http://www.w3.org/2000/svg"><path d="M178.626 250.278c-.921-.215-1.693-.888-2.43-1.61-.735-.718-1.409-1.505-2.189-2.165-1.569-1.33-2.813-.956-3.485 1.011-.206.604-.321 1.241-.463 1.866-.197.88-.437 1.741-.837 2.556-1.155 2.344-3.427 2.967-5.614 1.53-.813-.533-1.433-1.276-2.124-1.941-.949-.912-1.742-2.339-3.3-1.953-1.592.396-1.563 2.032-1.875 3.304-.247 1.002-.504 1.995-.957 2.921-1.055 2.156-3.277 2.806-5.341 1.579-.949-.566-1.663-1.402-2.426-2.18-.804-.819-1.527-1.764-2.775-1.958-.556-.086-.673-.53-.791-.964-.168-.621-.007-1.007.727-.965 1.064.057 2.011.422 2.796 1.139.663.605 1.267 1.271 1.917 1.892.461.443.909.92 1.434 1.274 1.123.758 2.062.506 2.71-.68.371-.679.582-1.423.752-2.177.184-.813.338-1.642.62-2.423 1.048-2.876 3.751-3.674 6.166-1.801.806.625 1.472 1.426 2.216 2.132.827.785 1.579 1.884 2.907 1.529 1.315-.351 1.48-1.652 1.79-2.753.246-.864.373-1.764.657-2.614 1.073-3.204 3.917-4.03 6.497-1.868.929.78 1.711 1.737 2.609 2.559 1.762 1.614 3.125 1.262 3.841-1.004.31-.977.47-1.999.737-2.991.288-1.068.75-2.055 1.645-2.763.337-.265.767-.711 1.165-.391.456.363.735 1.209.353 1.551-1.613 1.439-1.465 3.497-2.076 5.281-.877 2.57-2.556 3.687-4.856 3.077ZM59.348 4.976c-.086.133-.215.352-.363.559-.967 1.352-1.975 2.677-2.891 4.063-.474.716-.901.759-1.549.28a156.156 156.156 0 0 0-4.203-3.027c-.592-.41-.731-.76-.26-1.387a129.418 129.418 0 0 0 3.01-4.214c.434-.627.83-.845 1.533-.305 1.37 1.051 2.804 2.015 4.2 3.03.297.217.683.412.523 1ZM150.795 104.041a2.65 2.65 0 0 0-2.121-3.123 2.612 2.612 0 0 0-3.031 1.997c-.346 1.483.511 2.848 1.999 3.175 1.464.321 2.859-.585 3.153-2.049Zm-1.543-4.983c2.54.597 4.037 3.07 3.39 5.605-.626 2.461-2.97 3.869-5.482 3.296-2.579-.588-4.027-2.976-3.379-5.574.61-2.456 2.998-3.906 5.471-3.327Z" fill="#737AB4"/><path d="M60.553 149.63a12.178 12.178 0 0 0-3.618 5.019c-.75 1.936-1.084 4.013-1.132 6.09-.058 2.079.172 4.165.56 6.219a32.04 32.04 0 0 0 .74 3.05c.281 1.011.63 2.003 1.001 2.989-.485-.937-.885-1.915-1.252-2.906a31.56 31.56 0 0 1-.896-3.047 24.948 24.948 0 0 1-.694-6.32c.062-2.124.423-4.273 1.292-6.234.432-.976.98-1.904 1.65-2.732a10.751 10.751 0 0 1 2.35-2.128Z" fill="#E3DFE9"/><path d="M57.763 155.868c.398-2.026 1.137-4.209 1.527-4.245.39-.036 1.52 1.974 2.283 3.891.809 2.035-4.232 2.502-3.81.354Z" fill="#F3B03E"/><path d="M78.577 117.682c1.14 12.285-6.852 34.408-19.138 35.548-12.286 1.14-24.211-19.134-25.35-31.419-1.14-12.286 7.894-23.17 20.18-24.309 12.285-1.14 23.169 7.895 24.308 20.18Z" fill="#F3B03E"/><path d="M77.118 121.781c.581 10.6-7.306 29.369-17.49 29.928-10.186.559 3.399-6.651 2.816-17.249-.584-10.6.343-17.367 5.502-21.719 7.908-6.668 8.59-1.56 9.172 9.04Z" fill="#ED9F34"/><path d="M50.598 104.693a2.434 2.434 0 0 1-.331-4.648c.51-.194 1.032-.374 1.554-.533a2.434 2.434 0 0 1 1.431 4.651 21.3 21.3 0 0 0-1.254.431 2.42 2.42 0 0 1-1.4.099ZM39.137 121.765a2.433 2.433 0 0 1-1.791-1.659c-1.87-6.08 2.08-14.149 6.625-16.491a2.435 2.435 0 0 1 2.23 4.328c-2.677 1.378-5.302 7.16-4.202 10.732a2.434 2.434 0 0 1-2.862 3.09Z" fill="#EFF2F3"/></svg>
